X:1
T:The Drowning At Bruckless
R:jig
M:6/8
L:1/8
K:G
g|:fed efg|dge dBG|ABA A2G|ABA A2g|
|fed efg|dge dBG|AGA ~B2A|1 G3 G2g:|2 G3 GAB|]
|:cBc e2c|BAB dBG|ABA A2G|ABA A2B|
|cBc e2c|BAB dBG|ABc ~B2A|1 G3 GAB:|2 G3 G2g|]